X:56
T:Jigs simple chords 194
M:3/4
L:1/8
K:Dm
[fF,A,C]c fa gf | [eC,E,G,]d c2<b2 | [aF,A,C]g fe fg | [fF,A,C]c BA GF | [fF,A,C]c fa gf |
[eC,E,G,]d c2<b2 | [aF,A,C]g fe fg | [f6F,6A,6C6] | [fF,A,C]c fa gf |
[eC,E,G,]d c2<b2 | [aF,A,C]g fe fg | [fF,A,C]c BA GF | [fF,A,C]c fa gf |
[eC,E,G,]d c2<b2 | [aF,A,C]g fe fg | [f6F,6A,6C6] | [AF,A,C]F Ac BA |
[BG,B,D]G Bd cB | [AF,A,C]F Ac BA | [BG,B,D]G G2<G2 | [AF,A,C]F Ac BA |
[dB,DF]e fg ab | [aF,A,C]g fe fg | [f6F,6A,6C6] | [AF,A,C]F Ac BA |
[BG,B,D]G Bd cB | [AF,A,C]F Ac BA | [BG,B,D]G G2<G2 | [AF,A,C]F Ac BA |
[dB,DF]e fg ab | [aF,A,C]g fe fg | [f6F,6A,6C6] |



